com.fiatuconnect/capabilities/pluggedin.svg

<svg height="960" viewBox="0 0 960 960" width="960" xmlns="http://www.w3.org/2000/svg"><path d="m777 480c-17.673112 0-32-14.326888-32-32v-51h-21c-17.673112 0-32-14.326888-32-32v-132c0-17.673112 14.326888-32 32-32h14.5v-70c0-11.045695 8.954305-20 20-20 10.930636 0 19.813225 8.768729 19.997093 19.655511l.002907.344489v70h94v-70c0-11.045695 8.954305-20 20-20 10.930636 0 19.813225 8.768729 19.997093 19.655511l.002907.344489v70h12.5c17.673112 0 32 14.326888 32 32v132c0 17.673112-14.326888 32-32 32h-15v51c0 17.673112-14.326888 32-32 32h-33c0 203.793249-164.972597 369-368.5 369s-368.5-165.206751-368.5-369c0-203.788103 164.975203-369 368.5-369 11.045695 0 20 8.954305 20 20 0 10.930636-8.768729 19.813225-19.655511 19.997093l-.344489.002907c-181.420559 0-328.5 147.290459-328.5 329 0 181.714549 147.076698 329 328.5 329 179.609069 0 325.555031-144.35447 328.45599-323.559005l.04401-5.440995zm-272.093987-217c2.216474 0 4.323941.934957 5.777367 2.553153 1.489761 1.618195 2.180139 3.811749 1.925789 5.969343l-18.494843 157.576269h79.139032c5.232333 0 9.955967 2.661033 12.644804 7.0841 2.688838 4.459027 2.797845 9.817052.327021 14.419919l-131.026331 242.369708c-1.344419 2.481232-3.924249 4.027508-6.794765 4.027508h-.327021c-2.216474 0-4.323942-.934957-5.777367-2.553153-1.453426-1.618195-2.143803-3.811749-1.889454-5.969343l18.494843-157.576269-79.139032-.03596c-5.232333 0-9.955966-2.661033-12.644804-7.0841-2.688838-4.459027-2.83418-9.817052-.363356-14.383959l131.02633-242.369708c1.344419-2.481232 3.92425-4.027508 6.794766-4.027508z"/></svg>

<?xml version="1.0" encoding="UTF-8"?>
<svg width="960px" height="960px" viewBox="0 0 960 960" version="1.1" xmlns="http://www.w3.org/2000/svg" xmlns:xlink="http://www.w3.org/1999/xlink">
    <title>se.cohen.renaultze/capabilities/pluggedin</title>
    <g id="se.cohen.renaultze/capabilities/pluggedin" stroke="none" stroke-width="1" fill="none" fill-rule="evenodd">
        <path d="M892.5,111 C903.430636,111 912.313225,119.768729 912.497093,130.655511 L912.5,131 L912.5,201 L925,201 C942.673112,201 957,215.326888 957,233 L957,365 C957,382.673112 942.673112,397 925,397 L910,397 L910,448 C910,465.673112 895.673112,480 878,480 L845,480 L845,480 C845,683.793249 680.027403,849 476.5,849 C272.972597,849 108,683.793249 108,480 C108,276.211897 272.975203,111 476.5,111 C487.545695,111 496.5,119.954305 496.5,131 C496.5,141.930636 487.731271,150.813225 476.844489,150.997093 L476.5,151 C295.079441,151 148,298.290459 148,480 C148,661.714549 295.076698,809 476.5,809 C656.109069,809 802.055031,664.64553 804.95599,485.440995 L805,480 L777,480 C759.326888,480 745,465.673112 745,448 L745,397 L724,397 C706.326888,397 692,382.673112 692,365 L692,233 C692,215.326888 706.326888,201 724,201 L738.5,201 L738.5,131 C738.5,119.954305 747.454305,111 758.5,111 C769.430636,111 778.313225,119.768729 778.497093,130.655511 L778.5,131 L778.5,201 L872.5,201 L872.5,131 C872.5,119.954305 881.454305,111 892.5,111 Z M504.906013,263 C507.122487,263 509.229954,263.934957 510.68338,265.553153 C512.173141,267.171348 512.863519,269.364902 512.609169,271.522496 L512.609169,271.522496 L494.114326,429.098765 L573.253358,429.098765 C578.485691,429.098765 583.209325,431.759798 585.898162,436.182865 C588.587,440.641892 588.696007,445.999917 586.225183,450.602784 L586.225183,450.602784 L455.198852,692.972492 C453.854433,695.453724 451.274603,697 448.404087,697 L448.404087,697 L448.077066,697 C445.860592,697 443.753124,696.065043 442.299699,694.446847 C440.846273,692.828652 440.155896,690.635098 440.410245,688.477504 L440.410245,688.477504 L458.905088,530.901235 L379.766056,530.865275 C374.533723,530.865275 369.81009,528.204242 367.121252,523.781175 C364.432414,519.322148 364.287072,513.964123 366.757896,509.397216 L366.757896,509.397216 L497.784226,267.027508 C499.128645,264.546276 501.708476,263 504.578992,263 L504.578992,263 Z" id="Combined-Shape" fill="#000000" fill-rule="nonzero"></path>
    </g>
</svg>
